remix/Document/book-2-line.svg

<svg viewBox="0 0 24 24" fill="currentColor" xmlns="http://www.w3.org/2000/svg"><path d="M21 18H6C5.44772 18 5 18.4477 5 19C5 19.5523 5.44772 20 6 20H21V22H6C4.34315 22 3 20.6569 3 19V4C3 2.89543 3.89543 2 5 2H21V18ZM5 16.05C5.16156 16.0172 5.32877 16 5.5 16H19V4H5V16.05ZM16 9H8V7H16V9Z"/></svg>

<svg viewBox="0 0 24 24" xmlns="http://www.w3.org/2000/svg"><path fill="none" d="M0 0h24v24H0Z"/><path d="M21 18H6v0c-.56 0-1 .44-1 1 0 .55.44 1 1 1h15v2H6v0c-1.66 0-3-1.35-3-3V4v0c0-1.11.89-2 2-2h16v16ZM5 16.05c.16-.04.32-.05.5-.05H19V4H5v12.05ZM16 9H8V7h8v2Z"/></svg>
